X: 14973
T: Gene O'Donnell's
R: jig
M: 6/8
K: Gmajor
|:E/2F/2|GFG AGA|Bef gfe|BGE EFG|FDF AGF|
EB,E GFG|BAB efg|ed^c dAF|GEE E2:|
f|eBe gfg|bge efg|fdd d^cd|fdf agf|
eBe gfg|bge efg|ed^c dAF|GEE E2 f|
eBe gfg|bfe efg|fdA FAd|fdf agf|
gbg faf|gfe Bcd|ed^c dAF|GEE E2||

